icon-themes/breeze_svg/cmd/sc_arrowshapes.up-right-arrow-callout.svg

<svg viewBox="0 0 16 16" xmlns="http://www.w3.org/2000/svg">/&gt;<path d="m5 2-3 3h2v3h-2v6h6v-2h3v2l3-3-3-3v2h-3v-2h-2v-3h2z" fill="#4d4d4d"/></svg>

<svg xmlns="http://www.w3.org/2000/svg" viewBox="0 0 16 16">
     />
 <path 
     style="fill:#4d4d4d" 
     d="M 5 2 L 2 5 L 4 5 L 4 8 L 2 8 L 2 14 L 8 14 L 8 12 L 11 12 L 11 14 L 14 11 L 11 8 L 11 10 L 8 10 L 8 8 L 6 8 L 6 5 L 8 5 L 5 2 z "
     />
 </svg>
